src/assets/icons/arrow.svg

<svg fill="none" height="21" viewBox="0 0 12 21" width="12" xmlns="http://www.w3.org/2000/svg"><path d="m-.688882 17.3876c-.400338.3805-.416448 1.0134-.035992 1.4138.380459.4003 1.013419.4164 1.413756.036zm10.218292-8.33135.68889.72487c.1986-.18878.3111-.45082.3111-.72487s-.1125-.53609-.3111-.72487zm-8.840528-9.781124c-.400337-.380456-1.033297-.364346-1.413756.035992-.380456.400337-.364346 1.033297.035992 1.413756zm0 19.562274 9.529418-9.05628-1.37777-1.44974-9.529412 9.05622zm9.529418-10.50602-9.529418-9.056254-1.377764 1.449748 9.529412 9.056246z" fill="#000" transform="translate(1.23584 1.38135)"/></svg>

<svg width="12" height="21" viewBox="0 0 12 21" fill="none" xmlns="http://www.w3.org/2000/svg">
<path d="M-0.688882 17.3876C-1.08922 17.7681 -1.10533 18.401 -0.724874 18.8014C-0.344415 19.2017 0.288545 19.2178 0.688882 18.8374L-0.688882 17.3876ZM9.52941 9.05625L10.2183 9.78112C10.4169 9.59234 10.5294 9.3303 10.5294 9.05625C10.5294 8.7822 10.4169 8.52016 10.2183 8.33138L9.52941 9.05625ZM0.688882 -0.724874C0.288545 -1.10533 -0.344415 -1.08922 -0.724874 -0.688882C-1.10533 -0.288545 -1.08922 0.344415 -0.688882 0.724874L0.688882 -0.724874ZM0.688882 18.8374L10.2183 9.78112L8.84053 8.33138L-0.688882 17.3876L0.688882 18.8374ZM10.2183 8.33138L0.688882 -0.724874L-0.688882 0.724874L8.84053 9.78112L10.2183 8.33138Z" transform="translate(1.23584 1.38135)" fill="white"/>
</svg>
